icons/clipboard-star-outline.svg

<svg xmlns="http://www.w3.org/2000/svg" width="24" height="24" viewBox="0 0 24 24">
  <path d="M16,1 C16.5128358,1 16.9355072,1.38604019 16.9932723,1.88337887 L17,2 L17,3 L18,3 C19.5976809,3 20.9036609,4.24891996 20.9949073,5.82372721 L21,6 L21,20 C21,21.5976809 19.75108,22.9036609 18.1762728,22.9949073 L18,23 L6,23 C4.40231912,23 3.09633912,21.75108 3.00509269,20.1762728 L3,20 L3,6 C3,4.40231912 4.24891996,3.09633912 5.82372721,3.00509269 L6,3 L7,3 L7,2 C7,1.48716416 7.38604019,1.06449284 7.88337887,1.00672773 L8,1 L16,1 Z M7,5 L6,5 C5.48716416,5 5.06449284,5.38604019 5.00672773,5.88337887 L5,6 L5,20 C5,20.5128358 5.38604019,20.9355072 5.88337887,20.9932723 L6,21 L18,21 C18.5128358,21 18.9355072,20.6139598 18.9932723,20.1166211 L19,20 L19,6 C19,5.44771525 18.5522847,5 18,5 L17,5 L17,6 C17,6.51283584 16.6139598,6.93550716 16.1166211,6.99327227 L16,7 L8,7 C7.48716416,7 7.06449284,6.61395981 7.00672773,6.11662113 L7,6 L7,5 Z M12.2212829,10.1814077 C12.3198892,10.2300728 12.3997029,10.3098866 12.448368,10.4084929 L13.3225168,12.1797118 L15.2771729,12.4637399 C15.5504453,12.5034487 15.7397861,12.7571702 15.7000773,13.0304426 C15.684265,13.1392611 15.6330214,13.2398323 15.5542796,13.3165866 L14.1398772,14.6952882 L14.4737723,16.6420462 C14.5204528,16.9142144 14.3376589,17.1726924 14.0654907,17.2193729 C13.9571118,17.2379613 13.8456278,17.220304 13.7482976,17.1691344 L12,16.25 L10.2517024,17.1691344 C10.0072801,17.2976348 9.70496657,17.2036616 9.57646617,16.9592393 C9.52529663,16.861909 9.50763929,16.750425 9.52622772,16.6420462 L9.86012284,14.6952882 L8.4457204,13.3165866 C8.24797861,13.123836 8.24393246,12.8072794 8.43668307,12.6095376 C8.51343737,12.5307958 8.61400857,12.4795522 8.72282709,12.4637399 L10.6774832,12.1797118 L11.551632,10.4084929 C11.6738431,10.160866 11.973656,10.0591965 12.2212829,10.1814077 Z M15,3 L9,3 L9,5 L15,5 L15,3 Z"/>
</svg>

<svg xmlns="http://www.w3.org/2000/svg" viewBox="0 0 24 24">
  <path d="M16 1a1 1 0 0 1 1 .88V3h1a3 3 0 0 1 3 2.82V20a3 3 0 0 1-2.82 3H6a3 3 0 0 1-3-2.82V6a3 3 0 0 1 2.82-3H7V2a1 1 0 0 1 .88-1H16zM7 5H6a1 1 0 0 0-1 .88V20a1 1 0 0 0 .88 1H18a1 1 0 0 0 1-.88V6a1 1 0 0 0-1-1h-1v1a1 1 0 0 1-.88 1H8a1 1 0 0 1-1-.88V5zm5.22 5.18c.1.05.18.13.23.23l.87 1.77 1.96.28a.5.5 0 0 1 .27.86l-1.41 1.38.33 1.94a.5.5 0 0 1-.72.53L12 16.25l-1.75.92a.5.5 0 0 1-.72-.53l.33-1.94-1.41-1.38a.5.5 0 0 1 .27-.86l1.96-.28.87-1.77a.5.5 0 0 1 .67-.23zM15 3H9v2h6V3z"/>
</svg>
